src/Icon/svgs/Send2.svg

<svg width="24" height="24" viewBox="0 0 24 24" fill="none" xmlns="http://www.w3.org/2000/svg">
<path fill-rule="evenodd" clip-rule="evenodd" d="M6 11H10C10.5523 11 11 11.4477 11 12C11 12.5523 10.5523 13 10 13H6V19L19 12L6 4.99998V11ZM6.9482 20.7609C5.61574 21.4784 4 20.5133 4 19V4.99998C4 3.48663 5.61574 2.52156 6.9482 3.23904L19.9482 10.239C21.3506 10.9942 21.3506 13.0058 19.9482 13.7609L6.9482 20.7609Z" fill="#1B1C1D"/>
</svg>

<svg xmlns="http://www.w3.org/2000/svg" width="24" height="24" fill="none"  xmlns:v="https://vecta.io/nano"><path fill-rule="evenodd" d="M6 11h4a1 1 0 1 1 0 2H6v6l13-7L6 5v6zm.948 9.761C5.616 21.478 4 20.513 4 19V5c0-1.513 1.616-2.478 2.948-1.761l13 7c1.402.755 1.402 2.767 0 3.522l-13 7z" fill="#1b1c1d"/></svg>
